X:1
T:The Book of Truth
T:The Book of Truth
T:Samuel Mitchell
T:William Fletcher McCauley, 1896
T:Public Domain Courtesy of the Cyber Hymnal™
T:Public Domain Courtesy of the Cyber Hymnal™
C:Samuel Mitchell
Z:Public Domain
Z:Courtesy of the Cyber Hymnal™
%%score ( 1 2 ) ( 3 4 )
L:1/8
Q:1/4=92
M:4/4
K:Ab
V:1 treble 
V:2 treble 
V:3 bass 
V:4 bass 
V:1
 [CE]2 ([CE]>[DF]) [CE]>[B,D] [A,C]>[CE] | [CA]>[CE] [CA]>[DB] [Ec]2 z2 | [Ee]2 [Ed]2 [Ed][Ed]FG | %3
w: 1.~Love the * Bi- ble, bless- èd|book of heav’n- ly truth,|Words of beau- ty shin- ing,|
w: 2.~Know the * Bi- ble, read its|pag- es o’er and o’er,|Ga- thering trea- sure sur- est,|
w: 3.~Live the * Bi- ble, in the|life its pre- cepts show,|Hum- bly pray- ing ev- er,|
 [Af]2 [Ae]2 [ce][Be]AF | [CE]2 ([CE]>[DF]) [CE]>[B,D] [A,C]>[CE] | [CA]>[CE] [CA]>[DB] [Ec]2 z2 | %6
w: love and du- ty twin- ing;|Bear it * dai- ly in the|ten- der heart of youth,|
w: find- ing plea- sure pur- est,|Of His * power and mer- cy|learn- ing more and more—|
w: work de- lay- ing ne- ver;|Thus in * life and death thy|trust- ing heart shall know|
 [Fd]>[Fc] [FB]>[FA] E2 [Ec]2 | [DB]4 [CA]2 z2 ||"^Refrain" F2 F>G A>G F2 | A2 B2 c4 | %10
w: Ev- ery thought and word re-|fin- ing.|||
w: Thus true wis- dom thou se-|cur- est.|This is the power of God|un- to life,|
w: Peace, sweet peace, that none can|se- ver.|||
 [Fd]>[Fd] [Fd]>[Fd] [=Ec]2 [GB]2 | [FA]2 [DF]2 [CE]4 | [CE]2 ([CE]>[DF]) [CE]>[B,D] [A,C]>[CE] | %13
w: |||
w: Wis- dom’s sac- red pre- cepts|for the way;|Sword of * Spir- it, giv- ing|
w: |||
 [CA]>[CE] [CA]>[DB] [Ec]2 z2 | [Fd]>[Fc] [FB]>[FA] E2 [Ec]2 | [DB]4 [CA]4 |] %16
w: |||
w: vic- tory in the strife—|God’s own book, the bless- èd|Bi- ble.|
w: |||
V:2
 x8 | x8 | x8 | x8 | x8 | x8 | x4 E2 x2 | x8 || F2 F>G A>G F2 | A2 B2 c4 | x8 | x8 | x8 | x8 | %14
 x4 E2 x2 | x8 |] %16
V:3
 [A,,A,]2 [A,,A,]2 [A,,A,]>[A,,E,] [A,,E,]>[A,,A,] | A,>A, A,>A, A,2 z2 | %2
 [E,C]2 [E,B,]2 [E,B,][E,G,]DD | [A,D]2 [A,C]2 [A,E][A,D]CD | %4
 [A,,A,]2 [A,,A,]2 [A,,A,]>[A,,E,] [A,,E,]>[A,,A,] | [A,,A,]>[A,,A,] [A,,A,]>[A,,A,] [A,,A,]2 z2 | %6
 [D,A,]>[D,A,] [D,A,]>[D,A,] [C,A,]2 [A,,A,]2 | [E,G,]4 [A,,A,]2 z2 || F,2 F,>G, A,>G, F,2 | %9
 A,2 B,2 C4 | [B,,B,]>[B,,B,] [B,,B,]>[B,,B,] [C,G,]2 [C,=E,]2 | [D,F,]2 [D,A,]2 [A,,A,]4 | %12
 [A,,A,]2 [A,,A,]2 [A,,A,]>[A,,E,] [A,,E,]>[A,,A,] | [A,,A,]>[A,,A,] [A,,A,]>[A,,A,] [A,,A,]2 z2 | %14
 [D,A,]>[D,A,] [D,A,]>[D,A,] [C,A,]2 [A,,A,]2 | [E,G,]4 [A,,A,]4 |] %16
V:4
 x8 | A,>A, A,>A, A,2 x2 | x8 | x8 | x8 | x8 | x8 | x8 || F,2 F,>G, A,>G, F,2 | A,2 B,2 C4 | x8 | %11
 x8 | x8 | x8 | x8 | x8 |] %16

